.forestry/content/images/quote.svg

<svg clip-rule="evenodd" fill-rule="evenodd" stroke-linecap="round" stroke-linejoin="round" viewBox="0 0 24 24" xmlns="http://www.w3.org/2000/svg"><g fill="none" stroke="#fff" stroke-width="2" transform="matrix(-1 0 0 1 22 2)"><path d="m18 12.66v5.34c0 1.105-.895 2-2 2h-14c-1.105 0-2-.895-2-2v-14c0-1.105.895-2 2-2h5.34"/><path d="m16 0 4 4-10 10h-4v-4z"/></g></svg>

<?xml version="1.0" encoding="UTF-8" standalone="no"?>
<!DOCTYPE svg PUBLIC "-//W3C//DTD SVG 1.1//EN" "http://www.w3.org/Graphics/SVG/1.1/DTD/svg11.dtd">
<svg width="100%" height="100%" viewBox="0 0 24 24" version="1.1" xmlns="http://www.w3.org/2000/svg" xmlns:xlink="http://www.w3.org/1999/xlink" xml:space="preserve" xmlns:serif="http://www.serif.com/" style="fill-rule:evenodd;clip-rule:evenodd;stroke-linecap:round;stroke-linejoin:round;">
    <g transform="matrix(-1,0,0,1,22,2)">
        <g id="Symbols">
            <g id="Header-1-">
                <g id="edit">
                    <path id="Shape" d="M18,12.66L18,18C18,19.105 17.105,20 16,20L2,20C0.895,20 0,19.105 0,18L0,4C0,2.895 0.895,2 2,2L7.34,2" style="fill:none;stroke:white;stroke-width:2px;"/>
                    <path id="Shape1" serif:id="Shape" d="M16,0L20,4L10,14L6,14L6,10L16,0Z" style="fill:none;stroke:white;stroke-width:2px;"/>
                </g>
            </g>
        </g>
    </g>
</svg>
